!!!SOCIAL_FUNCTION:	songs used in treatment of the sick
!!!PDT:	1918

Specific Region: Dakotas, Minnesota, Montana, Nebraska
!!!REG: Dakotas and Montana
!!!LING_GROUP: Siouan
!!!LANG: Tone
!!!OTL@ENG: Behold the Dawn
!!!ONM: No. 80
**kern
*Imale
*clefF4
*k[b-]
*M2/4
*MM138
8f
8f
8f
8d
=2
4f
4f
=3
8f
8f
8f
8d
=4
4d
4d
=5
8d
8d
8d
8A
=6
4A
4A
=7
8d
8d
8d
8A
=8
4d
4d
=9
8d
8d
8d
8A
=10
4A
4A
=11
8A
8A
8A
8G
=12
4G
4G
=13
8G
8F
8F
8D
=14
4D
4D
=15
8G
8G
8G
8F
=16
4G
4G
=17
8G
8G
8G
8F
=18
4F
4F
=19
4D
4D
=20
2D
=21
2D
=22
8d
8d
8d
8A
=23
4A
4A
=24
4f
(8f
8d)
=25
4f
4f
=26
4f
(8f
8d)
=27
4d
4d
=28
(8d
8A)
(8A
8G)
=29
4A
4A
=30
8A
8A
8A
8G
=31
4G
4G
=32
8G
8F
8F
8D
=33
4D
4D
=34
8G
8G
8G
8F
=35
4G
4G
=36
8G
8G
8G
8F
=37
4F
4F
=38
4D
4D
=39
2D
=40
2D
==
*-
!!!CNT: Native American -- Sioux
!!!MRD: 1911/07//-1914///
!!!OCL: Frances Densmore
!!!YOR1: Teton Sioux Music, Bulletin 61,
!!!YOR2: Bureau of American Ethnology, Smithsonian Institution
!!!PPR: Government Printing Office
!!!PPP: Washington, D.C.
!!!PDT: 1918///
!!!ENC: Craig Stuart Sapp
!!!END: 2002/03/25/
!!!EEV: 2002/03/31/
!!!AGN: Song of Personal Dreams/Song Used in Treatment of the Sick
!!!MPN@@SIO: Tatang'ka-ohi'tika
!!!MPN@ENG: Brave Buffalo
!!!TXO: Teton Sioux
!!!MLC: Standing Rock Reservation, South Dakota, United States of America
!!!ARL: 45.9/-100.7#
!!!catalog: Catalogue No. 610
!!!PPG: 250
!!!EFL: 80/245
!!!VTS: 2163260253
